icons/linear-ele-other-sport-baseball.svg

<svg xmlns="http://www.w3.org/2000/svg" width="32px" height="32px" viewBox="0 0 32 32" version="1.1">
    <title>linear-ele-other-sport-baseball</title>
    <g id="linear-ele-other-sport-baseball" stroke-width="1" fill-rule="evenodd">
        <path d="M16,2 C23.7319865,2 30,8.2680135 30,16 C30,23.7319865 23.7319865,30 16,30 C8.2680135,30 2,23.7319865 2,16 C2,8.2680135 8.2680135,2 16,2 Z M15.1182741,4.03108336 L15.0907815,4.03392883 C9.178588,4.47684157 4.46073316,9.20362762 4.03179674,15.1197072 C5.12914874,14.7120834 6.29980833,14.5 7.5,14.5 C13.0228475,14.5 17.5,18.9771525 17.5,24.5 C17.5,25.7001774 17.2879295,26.8708982 16.8815508,27.9693702 C22.8060174,27.5385675 27.5385675,22.8060174 27.9682033,16.8802928 C26.8712357,17.287803 25.7004664,17.5 24.5,17.5 C18.9771525,17.5 14.5,13.0228475 14.5,7.5 C14.5,6.29980321 14.7120926,5.12920729 15.1182741,4.03108336 Z M7.5,16.5 C6.29392436,16.5 5.12819113,16.7665424 4.06676798,17.2717994 C4.65860103,22.8840806 9.11678406,27.3419649 14.7275199,27.933332 C15.2335571,26.8714938 15.5,25.7058846 15.5,24.5 C15.5,20.081722 11.918278,16.5 7.5,16.5 Z M17.273482,4.06677364 L17.1912357,4.24141148 C16.7383002,5.25538981 16.5,6.3596397 16.5,7.5 C16.5,11.918278 20.081722,15.5 24.5,15.5 C25.7063544,15.5 26.8722378,15.2333027 27.9334031,14.7281289 C27.3414342,9.11625334 22.8837467,4.6585658 17.273482,4.06677364 Z" id="&#24418;&#29366;" fill-rule="nonzero" />
    </g>
</svg>

<svg xmlns="http://www.w3.org/2000/svg" viewBox="0 0 32 32"><path fill="currentColor" d="M16 2c7.732 0 14 6.268 14 14s-6.268 14-14 14S2 23.732 2 16 8.268 2 16 2m-.882 2.031-.027.003C9.179 4.477 4.46 9.204 4.03 15.12A9.945 9.945 0 0 1 7.5 14.5c5.523 0 10 4.477 10 10 0 1.2-.212 2.37-.618 3.47 5.924-.431 10.657-5.164 11.086-11.09a9.944 9.944 0 0 1-3.468.62c-5.523 0-10-4.477-10-10 0-1.2.212-2.37.618-3.469M7.5 16.5a7.965 7.965 0 0 0-3.433.772c.592 5.612 5.05 10.07 10.66 10.661A8 8 0 0 0 7.5 16.5m9.773-12.433-.082.174A8 8 0 0 0 24.5 15.5a7.965 7.965 0 0 0 3.433-.772c-.592-5.612-5.05-10.07-10.66-10.661"/></svg>
